X:1
T:Dreamy Eyes That Haunt Me Still
T:Dreamy Eyes That Haunt Me Still
T:Song & Chorus
T:John T. Rutledge
T:1878
T:1878
T:1878
T:1878
C:John T. Rutledge
Z:1878
%%score ( 1 2 ) { ( 3 5 6 ) | ( 4 7 ) }
L:1/8
Q:1/4=92
M:4/4
K:Bb
V:1 treble nm="Voice"
V:2 treble 
V:3 treble nm="Piano"
V:5 treble 
V:6 treble 
V:4 bass 
V:7 bass 
V:1
"^Andante grazio." z8 | z8 | z8 | z8 | z8 | z8 | z8 | z8 |] d3 ^c x G x z | F4 B2 z2 | %10
w: ||||||||Far a- mem'|val- ley,|
w: ||||||||Life seem'd bright|fore us,-|
w: ||||||||Star of bove|beam- ing,|
 f3 g f x B x | x6 z2 | d3 ^c d x G x | F4 B2 z2 | f3 e d x f x | B6 z2 | c3 A F x c x | %17
w: Steals my heart sweet||To my lit- sweet|Al- lie,|Who was once life|light.|She has left sad|
w: swift- ly did mom||Soon a cloud glid|o'er us,|Turn- ing hap- ness-|woe.|And my path- once|
w: Smile up- on in||Of the past sad|dream- ing,|Since af- fec- ros-|died.|Years may come years|
 =e2 d4 z2 | d3 G =E x c z | A6 z2 | .c3 A F x G x | B2 d4 z2 | A3 B A x B3/2 x/ | %23
w: lone- ly,|Tears un- bid- come|will|She has left tok-|on- ly,|Dream- y eyes haunt|
w: cheer ful|Strewn with flow'rs ev'|side|Now is lone- sad|tear- ful,|For I've lost heart's|
w: van- ish,|Still my heart pain|fill|I can nev- nev-|ban- ish,|Dream- y eyes haunt|
 (F2 A2 c2"_rall:" !fermata!_e2) ||[K:Bb][M:4/4]"^CHORUS." d3 ^c d x G x | F4 B2 z2 | %26
w: still. * * *|She has left sad|lone- ly,|
w: pride. * * *|||
w: still.- * * *|||
 f3 g f x B3/2 x/ | c6 z2 | d3 e f x"^rit:" B x | G4 e2 z2 |!pp! d3 F =E x c x | B6 z2 | z8 | z8 | %34
w: Wand'- ring down rug|hill,|She has left noth|on- ly|Dream- y eyes haunt|still.|||
w: ||||||||
w: ||||||||
 z8 | z8 |] %36
w: ||
w: ||
w: ||
V:2
 x8 | x8 | x8 | x8 | x8 | x8 | x8 | x8 |] x4 d x B x | x8 | x5 d x =B | c6 x2 | x5 B x B | x8 | %14
w: ||||||||* ries||in de-|light,|tle heart||
w: ||||||||* be||the ents|go,|came ing||
w: ||||||||* me||me your|pride,|I'm ly||
 x5 d x e | x8 | x5 A x f | x8 | x5 d x G | x8 | x5 F x A | x8 | x5 G x3/2 A/ | x8 || %24
w: my and||me and||den at||no en||that me||
w: pi to||way so||on ry||ly and||my sweet||
w: tions es||and may||with will||er, er||||
[K:Bb][M:4/4] x5 B x B | x8 | x5 d x3/2 B/ | x8 | x5 d x _A | x8 | x5 F x d | x8 | x8 | x8 | x8 | %35
w: me and||life's ged||||that me|||||
w: |||||||||||
w: |||||||||||
 x8 |] %36
w: |
w: |
w: |
V:3
 [Fd]3 [=E^c] [Fd][DB][EG]B | [DF]4 ([DB][Fc][Bd][ce]) | [df]3 [eg] [df][Bd] G2 | %3
 [Ac]4- [Ac][ce][Bd][Ac] | [Fd]3 [Fe] [Ff][Fd] x x | [EG]4 [Ge]2 z2 | %6
 [Fd]3 [DF] [^C=E][DF]!fermata![Ec]!fermata![Fd] | D2 E2 !fermata!D2 z2 |] %8
 z x x2 z[I:staff +1] F,[I:staff -1]x[I:staff +1]G, | %9
[I:staff -1] x[I:staff +1] (F,[I:staff -1][B,D][I:staff +1]F,)[I:staff -1] x[I:staff +1] (F,[I:staff -1][B,D][I:staff +1]F,) | %10
[I:staff -1] [Fd]3 [Ge] x x B=B | [Ac]3 ([GB] [FA][EG]FE) | %12
 z[I:staff +1] F,[I:staff -1][B,D][I:staff +1]F,[I:staff -1] z [B,D] z [B,E] | %13
 z[I:staff +1] F,[I:staff -1][B,D][I:staff +1]F,[I:staff -1] z (x x x) | %14
 [FBf]3 [Fd] [Ec][DB][Fd][Ec] | %15
 z[I:staff +1] F,[I:staff -1][B,D][I:staff +1]F,[I:staff -1] (DFBd) | %16
 z [A,CF][A,CF][A,CF] z [A,CF][A,CF][A,CF] | z [DGB][DGB][DGB] z [DGB][DGB][DGB] | %18
 z [C=EGB][CEGB][CEGB] z [CEGB][I:staff +1]C,[I:staff -1][CEGB] | z C[FA]C z C[FA]C | %20
 z [CFA][CFA][CFA] z ([CF][C=E][C_E]) | z [DGB][DGB][DGB] z [DGB][DGB][DGB] | z C[FA]C z C[=EGB]C | %23
 [A,CF]2 [A,C]2 [A,C_E]2 [F,A,CE]2 ||[K:Bb][M:4/4]!p! [Fd]3 [=E^c] [Fd][DB][_EG]B | %25
 [DF]4 ([DB][DF][DB][Fd]) | [Bf]3 [Bg] [Bf][Fd] [GB]>[GB] | [Ac]4- [Ac]([FA][GB][Ac]) | %28
 [Fd]3 [Fd] [Ff][Fd][DB]"_rit:"_A | [DG]4 [Ge]2 z2 | %30
!pp! [Ec]3 [DF] [^C=E][DF]!fermata![Ec]!fermata![Fd] | !fermata!B6 z2 | [Fd]3 [Fe] [Ff][Fd]B_A | %33
 [EG]4 [Ge][eg][df][ce] | [=Ed]3 [DF] [^CE][DF]!fermata![Ec]!fermata![Fd] | !fermata!B6 z2 |] %36
V:4
 [B,,,B,,]2 [F,B,D]2 [F,B,D]2 [E,G,B,]2 | [B,,B,]2 [B,,B,]2 [B,,F,]2 z2 | %2
 [B,,,B,,]2 [F,B,D]2 [F,B,D]2 [F,B,D]2 | [F,,F,]2 [F,A,CE]2 [F,A,CE]2 [F,A,CE]2 | %4
 B,3 [B,C] [B,D]B, [B,,B,]2 | [E,B,]4 [E,B,]2 z2 | %6
 [F,B,]3 [F,B,] [F,B,][F,B,]!fermata![F,B,]!fermata![F,B,] | !fermata!B,,6 z2 |] %8
 [B,,,B,,]2 z2 z z z z | x x x x [B,,,B,,]2 x x | [B,,,B,,]2 [F,B,D]2 [B,,,B,,]2 [G,,G,]2 | %11
 [F,,F,]2 [F,A,CE]2 [F,,F,]2 [F,A,]2 | [B,,,B,,]2 x x x x x x | [B,,,B,,]2 z x [C,,B,,] z z2 | %14
 [F,,F,] z z2 z2 [F,A,]2 | [B,,,B,,]2 z2 [B,,,B,,]2 z2 | F,,2 z2 A,,2 z2 | %17
 [B,,,B,,]2 z2 [G,,,G,,]2 z2 | [C,,C,]2 z2 [=E,,=E,][I:staff -1]C[I:staff +1][C,,C,] x | %19
 [F,,F,]2 z2 [F,,F,]2 z2 | [F,,F,]2 z2 [F,,F,]2 ([G,,G,][A,,A,]) | [B,,B,]2 z2 [G,,G,]2 z2 | %22
 [C,,C,]2 z2 [C,,C,]2 z2 | [F,,F,]2 z2 z4 ||[K:Bb][M:4/4] [B,,B,]2 [B,,B,]2 [B,,B,]2 E,G, | %25
 B,2 [B,,B,]2 [B,,F,]2 [B,,F,]2 | [B,D]3 [B,E] [B,D]B, [G,D]>[G,=E] | [F,F]4 z4 | %28
 B,3 [B,C] [B,D]B, [B,,B,]2 | [E,B,]4 [E,B,]2 z2 | [F,B,]3 [F,B,] [F,B,][F,B,][F,A,][F,A,] | %31
 !fermata!B,,6 z2 | B,3 [B,C] [B,D]B, [B,,B,]2 | [E,B,]4 [E,B,]2 z2 | %34
 [F,B,]3 [F,B,] [F,B,][F,B,][F,B,][F,B,] | B,,6 z2 |] %36
V:5
 x8 | x8 | x6 B>=B | x8 | x6 D2 | x8 | x8 | !fermata!B6 x2 |] x8 | x8 | x6 G2 | x8 | %12
 x5[I:staff +1] F,[I:staff -1]x[I:staff +1]F, | x5[I:staff -1] [DF][DB][Fd] | x8 | x8 | x8 | x8 | %18
 x8 | x8 | x8 | x8 | x8 | x8 ||[K:Bb][M:4/4] x8 | x8 | x8 | x8 | x8 | x8 | x8 | %31
 (D2 E2 !fermata!D2) z2 | x6 D2 | x8 | x8 | (D2 E2 !fermata!D2) z2 |] %36
V:6
 x8 | x8 | x8 | x8 | x6 B_A | x8 | x8 | x8 |] x5 [B,D] z [B,E] | x8 | x4 [Ge][Dd] x2 | x6 C x | %12
 x8 | x8 | x8 | x8 | x8 | x8 | x8 | x8 | x8 | x8 | x8 | x8 ||[K:Bb][M:4/4] x8 | x8 | x8 | x8 | x8 | %29
 x8 | x8 | x8 | x8 | x8 | x8 | x8 |] %36
V:7
 x8 | x8 | x8 | x8 | x8 | x8 | x8 | (B,2 G,2 !fermata!F,2) x2 |] %8
 x F,[I:staff -1][B,D][I:staff +1]F, [B,,,B,,]x[E,,E,] x | [B,,,B,,]2 z2 x2 z2 | x8 | x8 | %12
 x x z2 [E,,E,]F,[E,,E,] x | x8 | x8 | x8 | x8 | x8 | x5 z x2 | x8 | x8 | x8 | x8 | x8 || %24
[K:Bb][M:4/4] x6 B,2 | x8 | x8 | x8 | x8 | x8 | x8 | (B,2 G,2 !fermata!F,2) z2 | x8 | x8 | x8 | %35
 (!fermata!B,2 G,2 !fermata!F,2) z2 |] %36

